src/assets/icons/hotkey.svg

<svg viewBox="0 0 40 40" xmlns="http://www.w3.org/2000/svg" fill-rule="evenodd" clip-rule="evenodd" stroke-linejoin="round" stroke-miterlimit="2"><path d="M31.911 2.515a5.577 5.577 0 0 1 5.574 5.574v23.822a5.577 5.577 0 0 1-5.574 5.574H8.089a5.577 5.577 0 0 1-5.574-5.574V8.089a5.577 5.577 0 0 1 5.574-5.574h23.822zM20 14.818l-5.182 10.364h10.364L20 14.818z"/></svg>

<?xml version="1.0" encoding="UTF-8" standalone="no"?>
<!DOCTYPE svg PUBLIC "-//W3C//DTD SVG 1.1//EN" "http://www.w3.org/Graphics/SVG/1.1/DTD/svg11.dtd">
<svg width="100%" height="100%" viewBox="0 0 40 40" version="1.1" xmlns="http://www.w3.org/2000/svg" xmlns:xlink="http://www.w3.org/1999/xlink" xml:space="preserve" xmlns:serif="http://www.serif.com/" style="fill-rule:evenodd;clip-rule:evenodd;stroke-linejoin:round;stroke-miterlimit:2;">
    <path d="M31.911,2.515C34.987,2.515 37.485,5.013 37.485,8.089L37.485,31.911C37.485,34.987 34.987,37.485 31.911,37.485L8.089,37.485C5.013,37.485 2.515,34.987 2.515,31.911L2.515,8.089C2.515,5.013 5.013,2.515 8.089,2.515L31.911,2.515ZM20,14.818C18.273,18.273 16.545,21.727 14.818,25.182L25.182,25.182L20,14.818Z"/>
</svg>
